
shader tank(
    float Time = 0.5,
    output color militaryPattern = color(0,0,0)
)
{
       float red = 0.0;
       float green = 0.01;
       float blue = 0;
       float noiseVal = abs(noise("simplex",P, Time))/10;
       green += noiseVal;
       if(green < 0.02)
       {
            red = 0.03;
       }
       red *=0.1;
       green *=0.1;
       militaryPattern = color(red,green,blue);
}